src/assets/arrow-left.svg

<svg xmlns="http://www.w3.org/2000/svg" width="1024" height="1024" fill="currentColor" viewBox="0 0 1024 1024">
  <g class="arrow-left">
    <path d="M307.23 564.856h527.348c30.72 0 51.2-23.04 51.2-51.2 0-28.16-20.48-51.2-51.2-51.2H307.23l240.649-239.1c20.48-19.968 20.48-52.732 0-72.7-20.48-19.968-51.22-19.968-71.7 0L148.48 477.306c-20.48 19.968-20.48 52.744 0 72.712l327.699 326.137c20.48 19.968 51.22 19.968 71.7 0 20.48-19.968 20.48-52.219 0-72.187L307.23 564.856Z" class="Vector"/>
  </g>
</svg>

<?xml version="1.0" encoding="UTF-8" standalone="no"?>
<!DOCTYPE svg PUBLIC "-//W3C//DTD SVG 1.1//EN" "http://www.w3.org/Graphics/SVG/1.1/DTD/svg11.dtd">
<svg width="100%" height="100%" viewBox="0 0 1024 1024" version="1.1" xmlns="http://www.w3.org/2000/svg" xmlns:xlink="http://www.w3.org/1999/xlink" xml:space="preserve" xmlns:serif="http://www.serif.com/" style="fill-rule:evenodd;clip-rule:evenodd;stroke-linejoin:round;stroke-miterlimit:2;">
    <g>
        <path d="M307.23,564.856L834.578,564.856C865.298,564.856 885.778,541.816 885.778,513.656C885.778,485.496 865.298,462.456 834.578,462.456L307.23,462.456L547.879,223.356C568.359,203.388 568.359,170.624 547.879,150.656C527.399,130.688 496.659,130.688 476.179,150.656L148.48,477.306C128,497.274 128,530.05 148.48,550.018L476.179,876.155C496.659,896.123 527.399,896.123 547.879,876.155C568.359,856.187 568.359,823.936 547.879,803.968L307.23,564.856Z" style="fill:rgb(230,180,89);fill-rule:nonzero;"/>
    </g>
</svg>
